X:1084
T:La Volta
C:William Byrd (1540 - 1623)
R:Galliard
%%MIDI gchord chcczc
S:Colin Hume's website,  colinhume.com  - chords can also be printed below the stave.
Q:1/4=145
M:6/4
L:1/4
%%MIDI ratio 3 1
%%MIDI program 6        % Harpsichord
%%MIDI chordprog 6      % Harpsichord
K:G
P:A
|: "G"B !mordent!A G B3 | "G"B !mordent!A G "D"d3 | "G"B "D"!mordent!A "Em"G "D"d>c "Em"B | "C"c "D"A2 "G"G3 :|
P:B
"G"GBc "G"dc/d/ "C"e | "Am"cB/c/ "D"d "G"!mordent!B>AG | "G"GBc d>cB | "C"c"D"A2 "G"G3 |
"G"G>A B/c/ "G"dc/d/"C"e | "Am"cB/c/ "D"d "G"BA/B/G | "G"DG/A/B/c/ d>cB | "C"c"D"A2 "G"G3 |]

